X: 2
T: Siuil A Ruin
R: barndance
M: 4/4
L: 1/8
K: Ador
|: e4 d4 | A2 G2 A4 | c2 A2 gg ee | dc AE G4 |
A3 B cc dc | A2 G2 A4- | A2 cd e4 | c3 e dc AG | A6 cd |
e2 e2 d3 e | dc AG A3 B | c2 A2 g2 e2 | dc AE G2 EG |
A3 B c2 dc | A2 G2 A4- | A2 cd e4 | d3 e dc AG | A8 :|


Tune 6756	Setting 18376

